source/img/icons/compass.svg

<?xml version="1.0" encoding="UTF-8" standalone="no"?>
<svg width="42px" height="42px" viewBox="0 0 42 42" version="1.1" xmlns="http://www.w3.org/2000/svg" xmlns:xlink="http://www.w3.org/1999/xlink" xmlns:sketch="http://www.bohemiancoding.com/sketch/ns">
    <!-- Generator: Sketch 3.2.2 (9983) - http://www.bohemiancoding.com/sketch -->
    <title>compass</title>
    <desc>Created with Sketch.</desc>
    <defs>
        <linearGradient x1="83.3298322%" y1="6.25558739%" x2="25.8655098%" y2="79.225788%" id="linearGradient-1">
            <stop stop-color="#ED2126" offset="0%"></stop>
            <stop stop-color="#BD2127" offset="100%"></stop>
        </linearGradient>
    </defs>
    <g id="Page-1" stroke="none" stroke-width="1" fill="none" fill-rule="evenodd" sketch:type="MSPage">
        <g id="compass" sketch:type="MSLayerGroup">
            <path d="M17.3402501,41.094648 C5.98867766,41.094648 0.0173753174,30.5063443 0.0173753174,23.565123 C0.0173753174,16.6239016 3.89192028,9.35797233 10.9045652,6.38854138 C18.3956649,3.21205026 26.8202202,1.32968516 41.1035004,0.0355591479 C40.7516955,7.80031521 38.5048346,20.3368668 36.7692637,25.3298402 C33.3778641,35.0946092 28.4619766,41.094648 17.3402501,41.094648 Z M16.8617954,20.2003953 C16.8617954,20.2003953 10.2806978,14.6709478 10.0133261,14.9391849 C9.75064504,15.2121278 15.1965854,21.8945239 15.1965854,21.8945239 C15.1965854,21.8945239 6.68759679,22.7128822 6.68759679,23.0945317 C6.68759679,23.4761812 15.1965854,24.2945394 15.1965854,24.2945394 C15.1965854,24.2945394 9.75064504,30.9769356 10.0133261,31.2498785 C10.2806978,31.5181155 16.8617954,25.988668 16.8617954,25.988668 C16.8617954,25.988668 17.6686013,34.624018 18.0438599,34.624018 C18.4191185,34.624018 19.2212338,25.988668 19.2212338,25.988668 C19.2212338,25.988668 25.807022,31.5181155 26.0697031,31.2498785 C26.3370748,30.9769356 20.8911345,24.2945394 20.8911345,24.2945394 C20.8911345,24.2945394 29.3954323,23.4761812 29.3954323,23.0945317 C29.3954323,22.7128822 20.8911345,21.8945239 20.8911345,21.8945239 C20.8911345,21.8945239 26.3370748,15.2121278 26.0697031,14.9391849 C25.807022,14.6709478 19.2212338,20.2003953 19.2212338,20.2003953 C19.2212338,20.2003953 18.4191185,11.5650454 18.0438599,11.5650454 C17.6686013,11.5650454 16.8617954,20.2003953 16.8617954,20.2003953 L16.8617954,20.2003953 Z" id="Shape" fill="url(#linearGradient-1)" sketch:type="MSShapeGroup"></path>
            <path d="M40.3600193,0.349443529 C26.7615861,1.63886363 18.1165663,3.51087572 10.9083178,6.78383805 C4.17101886,9.84268134 1.01884668,16.236605 0.760856403,22.9519425 C2.2806537,16.9519038 6.07076548,11.8742239 11.5260873,8.95185206 C20.3080765,4.24688048 25.9313265,3.26663885 40.3600193,0.349443529 L40.3600193,0.349443529 Z" id="Shape" fill="#EF403B" sketch:type="MSShapeGroup"></path>
            <path d="M0.603716867,23.2121795 C0.582608571,27.0945575 7.50847496,37.8438035 17.4575184,37.8005091 C26.4482452,37.76145 34.0810049,32.0357659 36.5394178,24.1533621 C34.1940516,33.3298919 28.4619766,40.1534654 17.3402501,40.1534654 C7.39120665,40.1534654 0.55774769,31.6828225 0.603716867,23.2121795 L0.603716867,23.2121795 Z" id="Shape" fill="#AD0B03" sketch:type="MSShapeGroup"></path>
        </g>
    </g>
</svg>

<svg width="88" height="60" viewBox="0 0 88 60" xmlns="http://www.w3.org/2000/svg"><title>compass</title><defs><filter x="-50%" y="-50%" width="200%" height="200%" filterUnits="objectBoundingBox" id="a"><feGaussianBlur stdDeviation="5.09" in="SourceGraphic" result="blur"/></filter><linearGradient x1="83.33%" y1="6.256%" x2="25.866%" y2="79.226%" id="b"><stop stop-color="#ED2126" offset="0%"/><stop stop-color="#BD2127" offset="100%"/></linearGradient></defs><g fill="none" fill-rule="evenodd"><path d="M38.743 22.825c21.397 0 38.743-5.11 38.743-11.412C77.486 5.11 60.14 0 38.743 0 17.346 0 0 5.11 0 11.413s17.346 11.412 38.743 11.412z" transform="translate(5 30)" fill-opacity=".1" filter="url(#a)" fill="#000"/><path d="M17.34 41.095C5.99 41.095.017 30.505.017 23.565c0-6.94 3.875-14.207 10.888-17.176 7.49-3.178 15.915-5.06 30.2-6.354-.353 7.764-2.6 20.3-4.336 25.294-3.392 9.765-8.308 15.765-19.43 15.765zM16.862 20.2s-6.58-5.53-6.85-5.26c-.26.272 5.185 6.955 5.185 6.955s-8.51.818-8.51 1.2c0 .38 8.51 1.2 8.51 1.2s-5.446 6.682-5.184 6.955c.268.268 6.85-5.26 6.85-5.26s.806 8.634 1.18 8.634c.376 0 1.178-8.635 1.178-8.635s6.587 5.528 6.85 5.26c.267-.273-5.18-6.955-5.18-6.955s8.505-.82 8.505-1.2c0-.382-8.504-1.2-8.504-1.2s5.447-6.683 5.18-6.956c-.263-.27-6.85 5.26-6.85 5.26s-.8-8.635-1.176-8.635c-.375 0-1.182 8.635-1.182 8.635z" id="Shape" fill="url(#b)" transform="translate(24 7)"/><path d="M64.36 7.35c-13.598 1.29-22.243 3.16-29.452 6.434-6.737 3.06-9.89 9.453-10.147 16.168 1.52-6 5.31-11.078 10.766-14 8.782-4.705 14.405-5.685 28.834-8.603z" id="Shape" fill="#EF403B"/><path d="M24.604 30.212c-.02 3.883 6.904 14.632 16.854 14.59 8.99-.04 16.623-5.766 19.08-13.65-2.344 9.178-8.076 16-19.198 16-9.95 0-16.782-8.47-16.736-16.94z" fill="#AD0B03"/></g></svg>
